styles/2/Numix-Circle/48x48/apps/dolphin.svg

<?xml version="1.0" encoding="UTF-8" standalone="no"?>
<svg
   xmlns:dc="http://purl.org/dc/elements/1.1/"
   xmlns:cc="http://creativecommons.org/ns#"
   xmlns:rdf="http://www.w3.org/1999/02/22-rdf-syntax-ns#"
   xmlns:svg="http://www.w3.org/2000/svg"
   xmlns="http://www.w3.org/2000/svg"
   xmlns:xlink="http://www.w3.org/1999/xlink"
   xmlns:sodipodi="http://sodipodi.sourceforge.net/DTD/sodipodi-0.dtd"
   xmlns:inkscape="http://www.inkscape.org/namespaces/inkscape"
   width="48"
   viewBox="0 0 13.546667 13.546667"
   height="48"
   id="svg2"
   version="1.1"
   inkscape:version="0.91 r"
   sodipodi:docname="dolphin.svg">
  <metadata
     id="metadata331">
    <rdf:RDF>
      <cc:Work
         rdf:about="">
        <dc:format>image/svg+xml</dc:format>
        <dc:type
           rdf:resource="http://purl.org/dc/dcmitype/StillImage" />
        <dc:title />
      </cc:Work>
    </rdf:RDF>
  </metadata>
  <sodipodi:namedview
     pagecolor="#ffffff"
     bordercolor="#666666"
     borderopacity="1"
     objecttolerance="10"
     gridtolerance="10"
     guidetolerance="10"
     inkscape:pageopacity="0"
     inkscape:pageshadow="2"
     inkscape:window-width="1280"
     inkscape:window-height="998"
     id="namedview329"
     showgrid="true"
     inkscape:zoom="12.118768"
     inkscape:cx="26.934554"
     inkscape:cy="26.871127"
     inkscape:window-x="0"
     inkscape:window-y="0"
     inkscape:window-maximized="1"
     inkscape:current-layer="layer3"
     showguides="true"
     inkscape:guide-bbox="true">
    <inkscape:grid
       type="xygrid"
       id="grid3308" />
  </sodipodi:namedview>
  <defs
     id="defs4">
    <linearGradient
       id="linearGradient4140">
      <stop
         style="stop-color:#2684da;stop-opacity:1;"
         offset="0"
         id="stop4143" />
      <stop
         style="stop-color:#3f96e5;stop-opacity:1;"
         offset="1"
         id="stop4145" />
    </linearGradient>
    <linearGradient
       inkscape:collect="always"
       xlink:href="#linearGradient4140"
       id="linearGradient4147"
       x1="-27"
       y1="13"
       x2="-24"
       y2="13"
       gradientUnits="userSpaceOnUse" />
  </defs>
  <g
     inkscape:groupmode="layer"
     id="layer1"
     inkscape:label="Shadow"
     sodipodi:insensitive="true">
    <path
       style="opacity:0.05;fill:#000000;fill-opacity:1;stroke:none"
       d="M 25,2 C 12.297451,2 2,12.297451 2,25 2,31.367153 4.6007106,37.116628 8.78125,41.28125 12.865755,44.99361 18.29568,47.25 24.25,47.25 c 12.702549,0 23,-10.297451 23,-23 0,-5.95432 -2.25639,-11.384245 -5.96875,-15.46875 C 37.116628,4.6007105 31.367153,2 25,2 z M 41.28125,8.78125 C 45.135604,12.894061 47.5,18.418655 47.5,24.5 c 0,12.702549 -10.297451,23 -23,23 C 18.418655,47.5 12.894061,45.135604 8.78125,41.28125 12.940939,45.4251 18.664604,48 25,48 37.702549,48 48,37.702549 48,25 48,18.664604 45.4251,12.940939 41.28125,8.78125 z"
       transform="scale(0.28222223,0.28222223)"
       id="path3978"
       inkscape:connector-curvature="0" />
    <path
       style="opacity:0.1;fill:#000000;fill-opacity:1;stroke:none"
       d="M 41.28125,8.78125 C 44.99361,12.865755 47.25,18.29568 47.25,24.25 c 0,12.702549 -10.297451,23 -23,23 -5.95432,0 -11.384245,-2.25639 -15.46875,-5.96875 C 12.894061,45.135604 18.418655,47.5 24.5,47.5 c 12.702549,0 23,-10.297451 23,-23 0,-6.081345 -2.364396,-11.605939 -6.21875,-15.71875 z"
       transform="scale(0.28222223,0.28222223)"
       id="path3976"
       inkscape:connector-curvature="0" />
    <path
       transform="matrix(4.3274074,0,0,3.2455556,117.19278,-35.348334)"
       d="m -24,13 a 1.5,2 0 1 1 -3,0 1.5,2 0 1 1 3,0 z"
       sodipodi:ry="2"
       sodipodi:rx="1.5"
       sodipodi:cy="13"
       sodipodi:cx="-25.5"
       id="path3952"
       style="opacity:0.2;fill:#000000;fill-opacity:1;stroke:none"
       sodipodi:type="arc" />
  </g>
  <g
     inkscape:groupmode="layer"
     id="layer2"
     inkscape:label="Base">
    <path
       sodipodi:type="arc"
       style="fill:url(#linearGradient4147);fill-opacity:1;stroke:none"
       id="path3942"
       sodipodi:cx="-25.5"
       sodipodi:cy="13"
       sodipodi:rx="1.5"
       sodipodi:ry="2"
       d="m -24,13 a 1.5,2 0 1 1 -3,0 1.5,2 0 1 1 3,0 z"
       transform="matrix(0,-4.3274075,3.2455556,0,-35.429918,-103.60974)" />
    <path
       style="opacity:0.1;fill:#000000;fill-opacity:1;stroke:none"
       d="M 40.03125 7.53125 C 43.74361 11.615755 46 17.04568 46 23 C 46 35.702549 35.702549 46 23 46 C 17.04568 46 11.615755 43.74361 7.53125 40.03125 C 11.709416 44.322508 17.537578 47 24 47 C 36.702549 47 47 36.702549 47 24 C 47 17.537578 44.322508 11.709416 40.03125 7.53125 z "
       transform="scale(0.28222223,0.28222223)"
       id="path4027" />
  </g>
  <g
     inkscape:groupmode="layer"
     id="layer3"
     inkscape:label="Symbol">
    <path
       inkscape:connector-curvature="0"
       style="opacity:0.1;fill:#000000;fill-opacity:1;fill-rule:nonzero;stroke:none"
       d="m 4.4450052,4.2333337 c -0.1103489,0 -0.2116667,0.1190534 -0.2116667,0.2469444 l 0,0.3175 -0.3086806,0 -0.026458,0 c -0.12446,0.012138 -0.2301525,0.1181738 -0.2293059,0.238125 l 0,4.5949307 c 0,0.1278542 0.1225553,0.2469442 0.2557639,0.2469442 l 6.2618051,0 c 0.132362,0 0.255764,-0.11909 0.255764,-0.2469442 l 0,-4.0128474 c 0,-0.1267242 -0.123684,-0.2557639 -0.255764,-0.2557639 l -0.3086796,0 0,-0.8819444 c 0,-0.1281783 -0.100189,-0.2469444 -0.211667,-0.2469444 l -5.2211112,0 z"
       id="path3060" />
    <path
       style="fill:#b29c9c;fill-opacity:1;fill-rule:nonzero;stroke:none"
       inkscape:connector-curvature="0"
       id="path57"
       d="m 3.9511163,5.6444448 0,-1.4484726 c 0,-0.1278909 0.1013177,-0.2448608 0.2116666,-0.2448608 l 5.2211115,0 c 0.111478,0 0.211666,0.1166826 0.211666,0.2448608 l 0,1.4484726 m -5.6444441,0" />
    <path
       style="fill:#ecedf1;fill-opacity:1;fill-rule:nonzero;stroke:none"
       inkscape:connector-curvature="0"
       id="path59"
       d="M 3.6161182,4.5155559 C 3.4916585,4.5276934 3.3858251,4.6380471 3.3866718,4.7579983 l 0,4.5939864 c 0,0.127854 0.1213556,0.2435713 0.2545642,0.2435713 l 6.2653294,0 C 10.038927,9.595556 10.16,9.4798387 10.16,9.3519847 l 0,-4.0196326 c 0,-0.1267242 -0.121356,-0.2523518 -0.2534346,-0.2523518 l -2.5687823,0 0,-0.3174861 c 0,-0.1267249 -0.1289784,-0.2469583 -0.2610584,-0.2469583 l -3.4363354,0 c -0.00762,0 -0.016651,0 -0.0254,0"
       sodipodi:nodetypes="ccsssssscsssc" />
    <path
       style="opacity:1;fill:#b29c9c;fill-opacity:1;fill-rule:nonzero;stroke:none"
       inkscape:connector-curvature="0"
       id="path77"
       d="m 7.3896144,5.8535403 c -0.013265,0 -0.022002,0.00339 -0.02878,0.014393 C 7.3255664,5.9297403 7.3949724,6.1304 7.3422103,6.2351044 7.2903048,6.3398092 7.2903048,6.3663381 6.8716329,6.3144094 6.4529608,6.2624803 5.8246697,6.4456425 5.598688,6.6717025 5.3693208,6.8988914 4.9794248,7.4743426 4.8990192,7.8062359 4.8219993,8.1381292 4.8572649,8.155627 4.961933,8.1039803 5.0654726,8.0509226 5.1537777,7.5880781 5.7707838,7.2838425 6.3911755,6.9784781 6.6800709,7.2220359 6.6800709,7.2220359 c 0,0 -0.5334972,-0.070556 -0.9245218,0.2525889 -0.392435,0.3239911 -0.6370369,0.5754511 -0.6282911,0.6747933 0.00875,0.095956 0.042883,0.0762 0.1057967,0 0.060657,-0.079304 0.4265722,-0.5588 0.8630186,-0.7165622 C 6.5325199,7.2739648 6.7153365,7.2852537 6.8806614,7.3721779 7.0471148,7.4593849 7.08238,7.5440512 6.8476524,7.604729 6.6106679,7.667665 6.5147457,7.640007 6.5147457,7.640007 c 0,0 0.2005904,0.18288 0.4872289,0.18288 0.2886137,0 0.4640949,-0.01778 0.4640949,-0.01778 0,0 0.7140563,0.7419622 0.8982836,0.8906934 0.1819708,0.1476022 0.3845356,0.078175 0.3845356,-0.00988 0,-0.087207 -0.088309,-0.3318934 -0.088309,-0.3318934 0,0 0.1828167,-0.4111977 -0.027651,-0.8731955 C 8.423592,7.0177048 7.8483402,6.5393382 7.8483402,6.5393382 c 0,0 -0.060659,-0.2624667 -0.1907158,-0.4365978 C 7.551835,5.9616314 7.4449102,5.8546692 7.3898963,5.8524114 M 4.4188435,7.9668203 c -0.025391,0.00113 -0.051911,0.00762 -0.076174,0.022013 -0.2005905,0.1134532 -0.095922,0.3152422 0.079276,0.3152422 0.1740709,0 0.3659155,-0.070556 0.3659155,-0.070556 0,0 -0.1873308,-0.2734734 -0.3693009,-0.2655711 M 4.8042242,8.304075 c 0,0 -0.3913068,0.059549 -0.435318,0.2435579 -0.044012,0.1828798 0.1641965,0.2359376 0.2953842,0.1399821 0.1311879,-0.095956 0.1399338,-0.38354 0.1399338,-0.38354 m 0,0" />
  </g>
</svg>

<svg xmlns="http://www.w3.org/2000/svg" viewBox="0 0 48 48">
 <defs>
  <linearGradient id="linearGradient3764" x1="1" x2="47" gradientUnits="userSpaceOnUse" gradientTransform="matrix(0,-1,1,0,-1.5e-6,47.999998)">
   <stop style="stop-color:#2986db;stop-opacity:1"/>
   <stop offset="1" style="stop-color:#3a90de;stop-opacity:1"/>
  </linearGradient>
 </defs>
 <g>
  <path d="m 36.31 5 c 5.859 4.062 9.688 10.831 9.688 18.5 c 0 12.426 -10.07 22.5 -22.5 22.5 c -7.669 0 -14.438 -3.828 -18.5 -9.688 c 1.037 1.822 2.306 3.499 3.781 4.969 c 4.085 3.712 9.514 5.969 15.469 5.969 c 12.703 0 23 -10.298 23 -23 c 0 -5.954 -2.256 -11.384 -5.969 -15.469 c -1.469 -1.475 -3.147 -2.744 -4.969 -3.781 z m 4.969 3.781 c 3.854 4.113 6.219 9.637 6.219 15.719 c 0 12.703 -10.297 23 -23 23 c -6.081 0 -11.606 -2.364 -15.719 -6.219 c 4.16 4.144 9.883 6.719 16.219 6.719 c 12.703 0 23 -10.298 23 -23 c 0 -6.335 -2.575 -12.06 -6.719 -16.219 z" style="opacity:0.05"/>
  <path d="m 41.28 8.781 c 3.712 4.085 5.969 9.514 5.969 15.469 c 0 12.703 -10.297 23 -23 23 c -5.954 0 -11.384 -2.256 -15.469 -5.969 c 4.113 3.854 9.637 6.219 15.719 6.219 c 12.703 0 23 -10.298 23 -23 c 0 -6.081 -2.364 -11.606 -6.219 -15.719 z" style="opacity:0.1"/>
  <path d="m 31.25 2.375 c 8.615 3.154 14.75 11.417 14.75 21.13 c 0 12.426 -10.07 22.5 -22.5 22.5 c -9.708 0 -17.971 -6.135 -21.12 -14.75 a 23 23 0 0 0 44.875 -7 a 23 23 0 0 0 -16 -21.875 z" style="opacity:0.2"/>
 </g>
 <g>
  <path d="m 24 1 c 12.703 0 23 10.297 23 23 c 0 12.703 -10.297 23 -23 23 -12.703 0 -23 -10.297 -23 -23 0 -12.703 10.297 -23 23 -23 z" style="fill:url(#linearGradient3764);fill-opacity:1"/>
 </g>
 <g>
  <path d="m 40.03 7.531 c 3.712 4.084 5.969 9.514 5.969 15.469 0 12.703 -10.297 23 -23 23 c -5.954 0 -11.384 -2.256 -15.469 -5.969 4.178 4.291 10.01 6.969 16.469 6.969 c 12.703 0 23 -10.298 23 -23 0 -6.462 -2.677 -12.291 -6.969 -16.469 z" style="opacity:0.1"/>
 </g>
 <g transform="matrix(3.543307,0,0,3.543307,-0.00115594,0.00275676)">
  <path d="m 4.445,4.233 c -0.11,0 -0.212,0.119 -0.212,0.247 l 0,0.317 -0.309,0 -0.026,0 C 3.774,4.809 3.668,4.915 3.669,5.035 l 0,4.595 c 0,0.128 0.123,0.247 0.256,0.247 l 6.262,0 c 0.132,0 0.256,-0.119 0.256,-0.247 l 0,-4.01 c 0,-0.127 -0.124,-0.256 -0.256,-0.256 l -0.309,0 0,-0.882 c 0,-0.128 -0.1,-0.247 -0.212,-0.247 l -5.221,0 z" style="fill:#000;opacity:0.1;fill-opacity:1;stroke:none;fill-rule:nonzero"/>
  <path d="m 3.951 5.644 0 -1.448 c 0 -0.128 0.101 -0.245 0.212 -0.245 l 5.221 0 c 0.111 0 0.212 0.117 0.212 0.245 l 0 1.448 m -5.644 0" style="fill:#b29c9c;fill-opacity:1;stroke:none;fill-rule:nonzero"/>
  <path d="M 3.616,4.516 C 3.492,4.528 3.386,4.638 3.387,4.758 l 0,4.594 c 0,0.128 0.121,0.244 0.255,0.244 l 6.265,0 c 0.132,0 0.253,-0.116 0.253,-0.244 l 0,-4.02 C 10.16,5.205 10.039,5.08 9.907,5.08 l -2.569,0 0,-0.317 C 7.338,4.636 7.209,4.516 7.077,4.516 l -3.436,0 c -0.008,0 -0.017,0 -0.025,0" style="fill:#ecedf1;fill-opacity:1;stroke:none;fill-rule:nonzero"/>
  <path d="M 7.39,5.854 C 7.377,5.854 7.368,5.857 7.361,5.868 7.326,5.93 7.395,6.13 7.342,6.235 7.29,6.34 7.29,6.366 6.871,6.314 6.452,6.262 5.824,6.445 5.598,6.671 5.369,6.898 4.979,7.474 4.898,7.806 4.821,8.138 4.856,8.155 4.961,8.104 5.065,8.051 5.153,7.588 5.77,7.284 6.39,6.979 6.679,7.222 6.679,7.222 c 0,0 -0.533,-0.071 -0.925,0.253 C 5.362,7.799 5.117,8.05 5.126,8.15 5.135,8.246 5.169,8.226 5.232,8.15 5.293,8.071 5.659,7.591 6.095,7.433 6.531,7.274 6.714,7.285 6.88,7.372 7.046,7.459 7.082,7.544 6.847,7.605 6.61,7.668 6.514,7.64 6.514,7.64 c 0,0 0.201,0.183 0.487,0.183 0.289,0 0.464,-0.018 0.464,-0.018 0,0 0.714,0.742 0.898,0.891 C 8.545,8.844 8.748,8.774 8.748,8.695 8.748,8.608 8.66,8.363 8.66,8.363 8.66,8.363 8.843,7.952 8.632,7.49 8.423,7.027 7.847,6.549 7.847,6.549 7.847,6.549 7.786,6.287 7.656,6.112 7.55,5.971 7.443,5.864 7.388,5.862 M 4.417,7.976 C 4.392,7.9761 4.365,7.984 4.341,7.998 4.14,8.111 4.245,8.313 4.42,8.313 c 0.174,0 0.366,-0.071 0.366,-0.071 0,0 -0.187,-0.273 -0.369,-0.266 m 0.386,0.336 c 0,0 -0.391,0.06 -0.435,0.244 C 4.324,8.739 4.532,8.792 4.663,8.696 4.794,8.6 4.803,8.312 4.803,8.312 m 0,0" style="fill:#b29c9c;opacity:1;fill-opacity:1;stroke:none;fill-rule:nonzero"/>
 </g>
</svg>
